!!!!SEGMENT: pl-sa--244-a-vii-4--001_boczkowski-kazimierz--christus-resurgens-ex-mortuis-sonata.krn
!!!cenid: 17xx:318
!!!COM: Boczkowski, Kazimierz
!!!COM-rismID:
!!!CDT: ~1650-~1749
!!!CNT: Polish
!!!OPR: Christus resurgens ex mortuis
!!!OTL: Sonata
!!!OMV: 001
!!!PDT: 1700
!!!AGN: Sacred
!!!SMS-siglum: PL-SA
!!!SMS-shelfmark: 244/A VII 4
!!!SMS-shelfwork: 001-001 M
!!!NIFC-rismSourceID: 1001035386
!!!SMS-variant: Clarino Primo: PL-SA 244/A VII 4:8-9
!!!SMS-altvar: Clarino 1mo: 244/A VII 4:10-11
!!!NIFC-islandoraID:
!!!URL-pdf-islandora:
!!!URL-scan: https://bc.bdsandomierz.pl/dlibra/publication/1596/edition/1564/content @EN{Scan on Cyfrowa Biblioteka Diecezjalna w Sandomierzu} @PL{Skany w portalu Cyfrowa Biblioteka Diecezjalna w Sandomierzu}
!!!ONB-nifc: dodatkowa partia clno 3: uwzględnić w xml-u i edycji krytycznej, usunąć w transkrypcji dyplomatycznej. Części: Sonata, Christus resurgens
!!!AIN: 4 empty 2 vox
!!!key:
**kern	**fba	**kern	**kern	**kern	**kern	**kern	**kern
*part7	*part7	*part6	*part5	*part4	*part1	*part3	*part1
*staff7	*staff7	*staff6	*staff5	*staff4	*staff1	*staff3	*staff1
*Iempty	*	*Iempty	*Ivox	*Ivox	*Iempty	*Iempty	*Iempty
*I"Baſso	*	*I"Baſso	*I"Canto Secundo	*I"Canto Primo	*I"Clarino 3tio	*I"Clarino 2do	*I"Clarino Primo
*mI"Basso continuo	*	*mI"Basso	*mI"Soprano II	*mI"Soprano I	*mI"Clarino III inD	*mI"Clarino II inD	*mI"Clarino I inD
*I'bc	*	*I'B	*I'S	*I'S	*I'clno 3 in D	*I'clno 2 in D	*I'clno 1 in D
*	*	*	*mI'S II	*mI'S I	*mI'clno III	*mI'clno II	*mI'clno I
*clefF4	*	*clefF4	*clefC1	*clefC1	*clefG2	*clefG2	*clefG2
*	*	*	*	*	*ITrd-1c-2	*ITrd-1c-2	*ITrd-1c-2
*k[f#c#]	*	*k[f#c#]	*k[f#c#]	*k[f#c#]	*k[f#c#]	*k[f#c#]	*k[f#c#]
*D:	*	*D:	*D:	*D:	*D:	*D:	*D:
*M3/2	*	*M3/2	*M3/2	*M3/2	*M3/2	*M3/2	*M3/2
=1	=1	=1	=1	=1	=1	=1	=1
*2\right	*	*	*	*	*	*2\right	*2\right
!	!	!LO:TX:a:B:t=Sonata \nTacet	!LO:TX:a:B:t=Sonata \nTacet	!LO:TX:a:B:t=Sonata \nTacet	!	!	!
!LO:MO:mod=!LO&colon;TX&colon;a&colon;B&colon;t=Sonata	!	!	!	!	!LO:MO:mod=!LO&colon;TX&colon;a&colon;B&colon;t=Sonata	!LO:MO:mod=!LO&colon;TX&colon;a&colon;B&colon;t=Sonata	!LO:MO:mod=!LO&colon;TX&colon;a&colon;B&colon;t=Sonata
!LO:TX:b:Bi:t=ſonata:rj	!	!	!	!	!LO:TX:b:Bi:t=Sonata:rj	!LO:TX:b:Bi:t=ſonata:rj	!LO:TX:b:Bi:t=ſonata:rj
1D	.	1.ryy	1.ryy	1.ryy	2a/	2d/	2d/
!LO:TX:b:Bi:t=2 Clarini	!	!	!	!	!	!	!
.	.	.	.	.	2a/	2f#/	2f#/
2C#/	6	.	.	.	2e/	2a/	2a/
=2	=2	=2	=2	=2	=2	=2	=2
!	!	!	!	!	!	!LO:TX:a:t=P:problem=pominięty fragment	!
1D	.	1.ryy	1.ryy	1.ryy	2a/	1.ryy	2dd\
.	.	.	.	.	2a/	.	2dd\
2AA/	.	.	.	.	2e/	.	2ee\
=3	=3	=3	=3	=3	=3	=3	=3
1D	.	1.ryy	1.ryy	1.ryy	2a/	2dd\	2ff#\
.	.	.	.	.	2a/	2dd\	2ff#\
2GG/	7	.	.	.	2a/	4ee\	4gg\
.	.	.	.	.	.	4dd\	4ff#\
=4	=4	=4	=4	=4	=4	=4	=4
1AA	.	1.ryy	1.ryy	1.ryy	2e/	2a/	2ee\
.	.	.	.	.	2a/	2a/	4ff#\
.	.	.	.	.	.	.	4gg\
2C#/	6	.	.	.	2e/	4ff#\	4.aaT>\
.	.	.	.	.	.	4ee\	.
.	.	.	.	.	.	.	8gg\
=5	=5	=5	=5	=5	=5	=5	=5
1D	.	1.ryy	1.ryy	1.ryy	2.a/	2.dd\	2.ff#\
.	.	.	.	.	4a/	4ee\	4gg\
2FF#/	6	.	.	.	2a/	2ff#\	2aa\
=6	=6	=6	=6	=6	=6	=6	=6
2GG/	.	1.ryy	1.ryy	1.ryy	2a/	4ee\	4gg\
.	.	.	.	.	.	4dd\	4ff#\
1AA	6 5	.	.	.	2.e/	2.a/	2.ee\
.	.	.	.	.	4e/	4a/	4ee\
=7	=7	=7	=7	=7	=7	=7	=7
!LO:MO:mod=!null:null	!	!	!	!	!	!LO:MO:mod=!null:null	!
!LO:N:vis=2..	!	!	!	!	!	!LO:N:vis=2..	!
1.D\	.	1.ryy	1.ryy	1.ryy	2a/	1.f#	4dd\
.	.	.	.	.	.	.	4a/
.	.	.	.	.	2a/	.	4dd\
.	.	.	.	.	.	.	4ee\
.	.	.	.	.	2a/	.	2ff#\
!	!	!	!	!	!	!	!LO:LB:g=original
=8	=8	=8	=8	=8	=8	=8	=8
!LO:MO:mod=!null:null	!	!	!	!	!	!	!
!LO:N:vis=2..	!	!	!	!	!	!	!
1.D\	.	1.ryy	1.ryy	1.ryy	2a/	4dd\	4ff#\
.	.	.	.	.	.	4a/	4dd\
.	.	.	.	.	2a/	4dd\	4ff#\
.	.	.	.	.	.	4ee\	4gg\
.	.	.	.	.	2a/	2ff#\	2aa\
=9	=9	=9	=9	=9	=9	=9	=9
1G	.	1.ryy	1.ryy	1.ryy	2.a/	2.ee\	2.gg\
!	!	!	!	!	!	!	!
.	.	.	.	.	4e/	4dd\	4ff#\
2A\	.	.	.	.	2e/	2a/	2ee\
!	!	!	!	!	!	!LO:LB:g=original	!
=10	=10	=10	=10	=10	=10	=10	=10
2D\	.	1.ryy	1.ryy	1.ryy	2a/	2dd\	4ff#\
.	.	.	.	.	.	.	4gg\
2F#\	.	.	.	.	2a/	2a/	4ff#\
.	.	.	.	.	.	.	4ee\
!	!	!	!	!	!	!LO:SIC:s=2g:v	!
2G\	.	.	.	.	2a/	2f#/	2dd\
!LO:LB:g=original	!	!	!	!	!	!	!
=11	=11	=11	=11	=11	=11	=11	=11
!	!	!	!	!	!	!LO:MO:mod=!null:null	!
!	!	!	!	!	!	!LO:N:vis=2..	!
2A\	.	1.ryy	1.ryy	1.ryy	2e/	1.a	2ee\
4AA/	.	.	.	.	2e/	.	2aa\
4BB/	.	.	.	.	.	.	.
4C#/	.	.	.	.	2e/	.	2ee\
4AA/	.	.	.	.	.	.	.
=12	=12	=12	=12	=12	=12	=12	=12
2D\	.	1.ryy	1.ryy	1.ryy	2a/	2d/	2a/
2BB/	.	.	.	.	2a/	2f#/	2dd\
2AA/	.	.	.	.	2e/	2a/	2ee\
=13	=13	=13	=13	=13	=13	=13	=13
1.D	.	1.ryy	1.ryy	1.ryy	2.a/	2.dd\	2.ff#\
.	.	.	.	.	4e/	4a/	4ee\
.	.	.	.	.	2a/	2f#/	2dd\
=14	=14	=14	=14	=14	=14	=14	=14
2GG/	6 5	1.ryy	1.ryy	1.ryy	2a/	2ee\	2gg\
2AA/	.	.	.	.	2e/	2a/	2ee\
2C#/	6	.	.	.	2e/	4ff#\	4aa\
.	.	.	.	.	.	4ee\	4gg\
!	!	!	!	!	!LO:LB:g=original	!	!
=15	=15	=15	=15	=15	=15	=15	=15
1.D	.	1.ryy	1.ryy	1.ryy	1a	2.dd\	2.ff#\
.	.	.	.	.	.	4a/	4ee\
.	.	.	.	.	2a/	2f#/	2dd\
=16	=16	=16	=16	=16	=16	=16	=16
*	*^	*	*	*	*	*	*
1E	-5	#6	1.ryy	1.ryy	1.ryy	2e/	4ee\	4gg\
.	.	.	.	.	.	.	4dd\	4ff#\
.	.	.	.	.	.	2e/	4ee\	4gg\
.	.	.	.	.	.	.	4ff#\	4aa\
2F#\	6	.	.	.	.	2a/	2dd\	2dd\
!	!	!	!	!	!	!	!	!LO:LB:g=original
*	*v	*v	*	*	*	*	*	*
=17	=17	=17	=17	=17	=17	=17	=17
1A	.	1.ryy	1.ryy	1.ryy	1e	1a	1ee
2D\	.	.	.	.	2a/	2f#/	2dd\
=18	=18	=18	=18	=18	=18	=18	=18
1C#	6	1.ryy	1.ryy	1.ryy	2e/	2a/	2ee\
.	.	.	.	.	2e/	4a/	4ee\
.	.	.	.	.	.	4a/	4ee\
!	!	!	!	!	!	!	!LO:TX:a:t=e
2D\	.	.	.	.	2a/	2dd\	2ff#\
*	*	*	*	*	*	*custos:ff#	*
!	!	!	!	!	!	!LO:LB:g=original	!
=19	=19	=19	=19	=19	=19	=19	=19
!LO:SIC:s=1F#:v	!	!	!	!	!	!	!
1E	.	1.ryy	1.ryy	1.ryy	2a/	2ff#\	2aa\
.	.	.	.	.	2a/	2dd\	2ff#\
2GG/	.	.	.	.	2a/	4ee\	4gg\
.	.	.	.	.	.	4dd\	4ff#\
=20	=20	=20	=20	=20	=20	=20	=20
1AA	.	1.ryy	1.ryy	1.ryy	1e	1a	1ee
2D\	.	.	.	.	2a/	2f#/	2dd\
=21	=21	=21	=21	=21	=21	=21	=21
2A\	.	1.ryy	1.ryy	1.ryy	2e/	2a/	4ee\
.	.	.	.	.	.	.	4ee\
2F#\	.	.	.	.	2a/	4a/	4dd\
.	.	.	.	.	.	4a/	4ee\
2D\	.	.	.	.	2a/	2dd\	4ff#\
.	.	.	.	.	.	.	4gg\
=22	=22	=22	=22	=22	=22	=22	=22
1A	.	1.ryy	1.ryy	1.ryy	1e	2a/	1ee
.	.	.	.	.	.	4a/	.
.	.	.	.	.	.	4a/	.
2D\	.	.	.	.	2a/	2f#/	2dd\
==	==	==	==	==	==	==	==
*-	*-	*-	*-	*-	*-	*-	*-
!!!system-decoration: [(s1,s2,s3)][(s4,s5,s6)]s7
!!!RDF**kern: > = above
!!!RDF**kern: < = below
!!!filter-modern: sic -sq | autostem -r | shed -e "s/^(\d+[\/\\]right)/$1yy/I; s/^(\d+[\/\\]left)/$1yy/I" | shed -e "s/TX(.*):t=P:/tx$1:t=P:/LG" | modori -m 
!!!EED: Wojciech Jakubiak-Danek
!!!EEV: 2020-10-14
!!!ENC: Krzysztof Stępień
!!!END: 2020-04-18
!!!ENC-modern: Leszek Kubiak
!!!END-modern: 2022-07-27
